packages/match-logos/mono/svg/lifesize.svg

<svg fill="none" height="30" viewBox="0 0 142 30" width="142" xmlns="http://www.w3.org/2000/svg" xmlns:xlink="http://www.w3.org/1999/xlink"><clipPath id="a"><path d="m0 0h141.509v30h-141.509z"/></clipPath><g clip-path="url(#a)" fill="#1f304c"><path d="m140.287 26.5019c0-.5661-.425-.6906-.895-.6906h-1.092v2.6038h.379v-1.2h.481l.651 1.2h.431l-.657-1.2c.095.006.19-.0085.278-.0424.089-.0339.169-.0864.236-.154.066-.0677.117-.1488.15-.238.032-.0891.045-.1842.038-.2788zm-1.211.3339h-.397v-.6452h.646c.311 0 .566 0 .566.3509s-.465.2943-.815.2943z"/><path d="m139.189 24.7868c-.458.0011-.905.1378-1.285.3929s-.676.617-.85 1.0402c-.175.4231-.22.8884-.13 1.3371s.311.8607.635 1.1839.737.5431 1.186.632.914.0427 1.337-.1327c.422-.1754.784-.4721 1.038-.8527s.389-.828.389-1.2856c.003-.3051-.056-.6077-.172-.89-.116-.2822-.287-.5386-.503-.7541s-.472-.3858-.755-.501-.585-.173-.89-.17zm0 4.2509c-.383-.0011-.757-.1156-1.074-.329-.318-.2134-.565-.5161-.711-.8699-.145-.3538-.183-.7429-.108-1.118.076-.3752.261-.7196.531-.9898.271-.2701.616-.4539.992-.5282.375-.0742.764-.0355 1.117.1111.354.1467.656.3948.868.7131.213.3182.326.6923.326 1.0749-.001.2542-.051.5058-.149.7404s-.242.4475-.422.6268c-.18.1792-.394.3212-.629.4178s-.487.1459-.741.1452zm-46.9135-15.2717h10.7605l-10.7605 10.4548v5.1905h19.2675v-5.1905h-10.33l10.415-10.4548.006-5.11694h-19.3472zm-81.6114-13.188642h7.2057v4.324532h-7.2057zm0 8.071702h7.2057v20.75664h-7.2057zm71.7227-8.071702h7.2056v4.324532h-7.2056zm0 8.071702h7.2056v20.75664h-7.2056zm-82.3868-8.071702h7.20566v28.828342h-7.20566zm58.0698 19.800042c-.0623-3.6566-1.2396-6.7359-3.3962-8.9378-2.1566-2.20187-5.2698-3.3962-8.9208-3.3962-6.9905 0-11.8868 4.5906-11.8868 11.1679 0 6.5774 4.6755 10.7547 11.9151 10.7547 2.7227 0 9.0566-.566 11.2415-5.7566h-7.2679c-.3933.5392-.9112.9752-1.5095 1.2709-.5982.2957-1.2592.4423-1.9263.4272-.6512.0178-1.2991-.0968-1.9048-.3366-.6056-.2398-1.1563-.6-1.6187-1.0588-.4625-.4587-.8271-1.0065-1.0718-1.6101-.2447-.6037-.3644-1.2507-.3519-1.902v-.6226zm-16.6981-3.8151c0-2.717 1.7943-4.4038 4.6924-4.4038 1.1697.0182 2.2876.4856 3.1221 1.3054.8346.8198 1.3219 1.9292 1.361 3.0984v.6056h-9.1755v-.6zm83.8693 9.3339c-.648.0147-1.293-.1022-1.895-.3436s-1.149-.6024-1.607-1.061c-.459-.4587-.82-1.0056-1.061-1.6076-.242-.6021-.359-1.2468-.344-1.8953v-.6113h16.568c-.062-3.6566-1.228-6.7359-3.396-8.9378-2.168-2.20187-5.231-3.3962-8.853-3.3962-6.94 0-11.785 4.5906-11.785 11.1679 0 6.5774 4.641 10.7547 11.824 10.7547 2.706 0 9.006-.566 11.157-5.7566h-7.194c-.39.5367-.904.9707-1.499 1.2645-.594.2939-1.251.4388-1.915.4223zm-4.907-9.3283c0-2.717 1.783-4.4037 4.653-4.4037 1.166.0199 2.279.4889 3.108 1.3093.829.8203 1.309 1.9287 1.341 3.0944v.6057h-9.102zm-48.8208-.1019c-2.7849-.566-4.9868-1.0528-4.9868-2.6943 0-.8038.4019-2.1509 3.1075-2.1509.7792-.0292 1.5447.2106 2.168.6792.4628.3709.7974.8777.9566 1.4491h6.7924c-.6566-3.81514-4.0302-5.66042-10.2905-5.66042-1.6472 0-9.8661.31698-9.8661 6.61702 0 4.6584 4.4944 5.5358 8.4906 6.3113 2.7396.5377 5.0943.9962 5.0943 2.8641 0 1.6132-1.2735 2.5698-3.3962 2.5698-.9068.0156-1.7943-.2624-2.5302-.7924-.47-.3625-.8177-.8603-.9962-1.4264h-7.1887c1.1321 4.9811 6.9057 5.7679 10.3415 5.7679 7.2906 0 11.3208-2.4962 11.3208-7.0302 0-4.5339-5.0095-5.6604-9.017-6.5038zm-37.5509-7.81694h-3.7755v-1.01887c0-1.29623.2094-2.07736.7189-2.59811.6622-.68491 1.6358-.76416 3.0566-.77548v-4.2566h-3.2095c-5.6603 0-8.1962 1.20566-8.1962 8.36038v.28302h-3.0113v4.0924h2.966v16.6982h7.7038v-16.6925h3.7472z"/></g></svg>

<svg width="142" height="30" viewBox="0 0 142 30" fill="none" xmlns="http://www.w3.org/2000/svg">
<g clip-path="url(#clip0)">
<path d="M140.287 26.5019C140.287 25.9358 139.862 25.8113 139.392 25.8113H138.3V28.4151H138.679V27.2151H139.16L139.811 28.4151H140.242L139.585 27.2151C139.68 27.2211 139.775 27.2066 139.863 27.1727C139.952 27.1388 140.032 27.0863 140.099 27.0187C140.165 26.951 140.216 26.8699 140.249 26.7807C140.281 26.6916 140.294 26.5965 140.287 26.5019ZM139.076 26.8358H138.679V26.1906H139.325C139.636 26.1906 139.891 26.1906 139.891 26.5415C139.891 26.8924 139.426 26.8358 139.076 26.8358Z" fill="#1F304C"/>
<path d="M139.189 24.7868C138.731 24.7879 138.284 24.9246 137.904 25.1797C137.524 25.4348 137.228 25.7967 137.054 26.2199C136.879 26.643 136.834 27.1083 136.924 27.557C137.014 28.0057 137.235 28.4177 137.559 28.7409C137.883 29.0641 138.296 29.284 138.745 29.3729C139.194 29.4618 139.659 29.4156 140.082 29.2402C140.504 29.0648 140.866 28.7681 141.12 28.3875C141.374 28.0069 141.509 27.5595 141.509 27.1019C141.512 26.7968 141.453 26.4942 141.337 26.2119C141.221 25.9297 141.05 25.6733 140.834 25.4578C140.618 25.2423 140.362 25.072 140.079 24.9568C139.796 24.8416 139.494 24.7838 139.189 24.7868ZM139.189 29.0377C138.806 29.0366 138.432 28.9221 138.115 28.7087C137.797 28.4953 137.55 28.1926 137.404 27.8388C137.259 27.485 137.221 27.0959 137.296 26.7208C137.372 26.3456 137.557 26.0012 137.827 25.731C138.098 25.4609 138.443 25.2771 138.819 25.2028C139.194 25.1286 139.583 25.1673 139.936 25.3139C140.29 25.4606 140.592 25.7087 140.804 26.027C141.017 26.3452 141.13 26.7193 141.13 27.1019C141.129 27.3561 141.079 27.6077 140.981 27.8423C140.883 28.0769 140.739 28.2898 140.559 28.4691C140.379 28.6483 140.165 28.7903 139.93 28.8869C139.695 28.9835 139.443 29.0328 139.189 29.0321V29.0377ZM92.2755 13.766H103.036L92.2755 24.2208V29.4113H111.543V24.2208H101.213L111.628 13.766L111.634 8.64906H92.2868L92.2755 13.766ZM10.6641 0.577358H17.8698V4.90189H10.6641V0.577358ZM10.6641 8.64906H17.8698V29.4057H10.6641V8.64906ZM82.3868 0.577358H89.5924V4.90189H82.3868V0.577358ZM82.3868 8.64906H89.5924V29.4057H82.3868V8.64906ZM0 0.577358H7.20566V29.4057H0V0.577358ZM58.0698 20.3774C58.0075 16.7208 56.8302 13.6415 54.6736 11.4396C52.517 9.23773 49.4038 8.0434 45.7528 8.0434C38.7623 8.0434 33.866 12.634 33.866 19.2113C33.866 25.7887 38.5415 29.966 45.7811 29.966C48.5038 29.966 54.8377 29.4 57.0226 24.2094H49.7547C49.3614 24.7486 48.8435 25.1846 48.2452 25.4803C47.647 25.776 46.986 25.9226 46.3189 25.9075C45.6677 25.9253 45.0198 25.8107 44.4141 25.5709C43.8085 25.3311 43.2578 24.9709 42.7954 24.5121C42.3329 24.0534 41.9683 23.5056 41.7236 22.902C41.4789 22.2983 41.3592 21.6513 41.3717 21V20.3774H58.0698ZM41.3717 16.5623C41.3717 13.8453 43.166 12.1585 46.0641 12.1585C47.2338 12.1767 48.3517 12.6441 49.1862 13.4639C50.0208 14.2837 50.5081 15.3931 50.5472 16.5623V17.1679H41.3717V16.5679V16.5623ZM125.241 25.8962C124.593 25.9109 123.948 25.794 123.346 25.5526C122.744 25.3112 122.197 24.9502 121.739 24.4916C121.28 24.0329 120.919 23.486 120.678 22.884C120.436 22.2819 120.319 21.6372 120.334 20.9887V20.3774H136.902C136.84 16.7208 135.674 13.6415 133.506 11.4396C131.338 9.23773 128.275 8.0434 124.653 8.0434C117.713 8.0434 112.868 12.634 112.868 19.2113C112.868 25.7887 117.509 29.966 124.692 29.966C127.398 29.966 133.698 29.4 135.849 24.2094H128.655C128.265 24.7461 127.751 25.1801 127.156 25.4739C126.562 25.7678 125.905 25.9127 125.241 25.8962ZM120.334 16.5679C120.334 13.8509 122.117 12.1642 124.987 12.1642C126.153 12.1841 127.266 12.6531 128.095 13.4735C128.924 14.2938 129.404 15.4022 129.436 16.5679V17.1736H120.334V16.5679ZM71.5132 16.466C68.7283 15.9 66.5264 15.4132 66.5264 13.7717C66.5264 12.9679 66.9283 11.6208 69.6339 11.6208C70.4131 11.5916 71.1786 11.8314 71.8019 12.3C72.2647 12.6709 72.5993 13.1777 72.7585 13.7491H79.5509C78.8943 9.93396 75.5207 8.08868 69.2604 8.08868C67.6132 8.08868 59.3943 8.40566 59.3943 14.7057C59.3943 19.3641 63.8887 20.2415 67.8849 21.017C70.6245 21.5547 72.9792 22.0132 72.9792 23.8811C72.9792 25.4943 71.7057 26.4509 69.583 26.4509C68.6762 26.4665 67.7887 26.1885 67.0528 25.6585C66.5828 25.296 66.2351 24.7982 66.0566 24.2321H58.8679C60 29.2132 65.7736 30 69.2094 30C76.5 30 80.5302 27.5038 80.5302 22.9698C80.5302 18.4359 75.5207 17.3094 71.5132 16.466ZM33.9623 8.64906H30.1868V7.63019C30.1868 6.33396 30.3962 5.55283 30.9057 5.03208C31.5679 4.34717 32.5415 4.26792 33.9623 4.2566V0H30.7528C25.0925 0 22.5566 1.20566 22.5566 8.36038V8.6434H19.5453V12.7358H22.5113V29.434H30.2151V12.7415H33.9623V8.64906Z" fill="#1F304C"/>
</g>
<defs>
<clipPath id="clip0">
<rect width="141.509" height="30" fill="white"/>
</clipPath>
</defs>
</svg>
